!! 00049] TT[KA
!! NN
!!!OTL: Can gong diao
!!!ARE: Asia, China,ÿShandong, Qixia
!! Ethnic Group: Han
!! III, 361
!!!SCT: C0307
!!!YEM: Copyright 1995, estate of Helmut Schaffrath.
**kern
*ICvox
*Ivox
*M2/4
*k[]
*C:
{8a
8e
8g
16g
16a
=1
16cc
16a
16g
16a
4cc
=2
8a
4ee
16dd
16ee
=3
8b
8a
4g}
=4
{8ee
8dd
8ee
16dd
16ee
=5
8b
8a
16a
16g
8e
=6
8cc
16a
16cc
8e
8d
=7
2c}
=8
{8ee
16dd
16ee
8ee
16dd
16b
=9
16a
16g
16a
16cc
8g
16g
16e
=10
8cc
4cc
8e
=11
8g
8e
4d}
=12
{8a
8e
8g
16g
16g
=13
16a
16g
16a
16g
8g
16e
16g
=14
8a
4cc
16c
16d
=15
16e
16g
16e
16d
4c}
==
!!!AGN: Xiaodiao. Yang can
!! Sehr typisch. Nur 6 Toene.
!!    Eine Verzierung.
!!!ONB: ESAC (Essen Associative Code) Database: CHINA
!!!AMT: simple duple
!!!AIN: vox
!!!EED: Helmut Schaffrath
!!!EEV: 1.0
*-
